X: 23863
T: Lizzy In The Lowground
R: reel
M: 4/4
K: Gdorian
|:B3G FGBc|dfgd fdcB|d3g gagf|gdfc dBcd|
B3G FGBc|dfgd fdcd|gdfc dBcd|1 BGFB GBBA:|2 BGFB GBB2||
|:B,3C B,CDF|G2dG cBGF|G2dG cBGF|G2dG FDCD|
B,3C B,CDF|G2dG cBGF|G2dG cBGB|BGFB GBB2:|

